icons/2_Variations/Wuxiaworld bg.var.svg

<svg width="1024" height="1024" fill="none" xmlns="http://www.w3.org/2000/svg"><g clip-path="url(#a)"><path d="M512 1024c282.77 0 512-229.23 512-512S794.77 0 512 0 0 229.23 0 512s229.23 512 512 512Z" fill="#728DBE"/><path d="M750.319 786.9a91.906 91.906 0 0 0-2.38-2.82 439.568 439.568 0 0 1-45.71-61.6c-25.44-41.42-47.15-84.74-66.12-129.38-12.46-29.35-24.63-58.8-36.79-88.28-7.079-17.214-14.186-34.4-21.32-51.56l-1.9-4.63 1-.22a11.065 11.065 0 0 1 1.73-.31c2.08-.15 4.18-.26 6.27-.37 4-.24 8-.48 12-.88a40.236 40.236 0 0 0 9.59-2.06c3.1-1.14 3.56-4 1.36-6.47a19.441 19.441 0 0 0-3.67-3.12c-8.109-5.49-17.14-7-26.75-6-2.08.22-4.13.55-6.18.87l-2.75.42-.06-.11-.09-.15a2.774 2.774 0 0 1-.18-.33 97920.29 97920.29 0 0 1-28.67-69.71 12.258 12.258 0 0 1-.549-2l-.261-1 3.43-.7c2.4-.5 4.681-1 6.951-1.47 1.2-.28 2.41-.53 3.63-.77a53.48 53.48 0 0 0 9.769-2.67c3.24-1.36 6.4-1.47 9.66-1.6h.74c1.22-.06 1.79.5 2.3 1.7a21.997 21.997 0 0 0 3.411 6 6.244 6.244 0 0 0 2.085 1.581 6.235 6.235 0 0 0 7.244-1.451 11.362 11.362 0 0 0 2.58-4.2 24.153 24.153 0 0 0-2-20.24c-2.65-4.7-6.45-7.32-12.22-6.56-4.52.59-9 1.14-13.55 1.7-6.49.79-13 1.59-19.45 2.53-3.39.48-6.73 1.29-10.12 2.12-1.57.37-3.15.76-4.77 1.11l-.15-.28-.87-1.66c-11.41-23.59-25.09-45.75-42.21-65.73-3.59-4.22-5.77-8.33-5.47-14.12.37-7.39-5.07-14.16-11.8-16.22-4.53-1.38-8.66-.63-11.83 2.89-4.41 4.9-6.51 10.88-4.88 17.2a99.02 99.02 0 0 0 6.8 18.51c10.34 21.46 22.58 41.92 34.8 62.38l.63 1 .46.77.92 1.53-.92.29-.74.26-11.91 3.37c-9 2.53-17.92 5.05-26.82 7.74-8 2.43-15.94 5-23.89 7.52-7.08 2.266-14.17 4.503-21.27 6.71-9.68 2.95-19.58 4.2-29.68 2.25a306.43 306.43 0 0 1-4.85-1c-3.13-.65-6.25-1.29-9.4-1.81a7.206 7.206 0 0 0-2.95.41l-1.36.33c.18.42.33.88.48 1.35.234.966.674 1.87 1.29 2.65 3.201 3.51 6.625 6.81 10.25 9.88 7.47 6 16.17 9.31 25.81 8.35a76.325 76.325 0 0 0 17.6-4.07c7.78-2.76 15.47-5.71 23.15-8.68 5.27-2 10.56-4.07 15.85-6 15.19-5.62 30.58-10.64 46.58-13.53h.11c2.76-.52 2.76-.52 4.39 2.86l-.24.2c-.204.197-.421.38-.65.55a524.606 524.606 0 0 0-55.12 47.78c-34 33.646-67.843 67.43-101.53 101.35-16.09 16.22-34.34 29-55.78 37.23l-3.67 1.38a145 145 0 0 0-12.92 5.35c-6 2.91-5.84 6.38-.31 10 8 5.33 16.46 5.42 25.27 2.36 9.92-3.45 18.8-8.81 27.63-14.36l2.64-1.66c6.45-4.06 12.9-8.11 19.58-11.74 13.49-7.32 27.65-13.22 41.81-19.12 3.82-1.59 7.63-3.17 11.43-4.79a1.52 1.52 0 0 1 .61-.07h.52l-.79 1.23-.52.83-3.66 5.57c-2.86 4.46-5.71 8.88-8.48 13.36-15.91 25.81-29.12 52.79-35.82 82.51l-.83 3.58a134.221 134.221 0 0 0-3.32 18c-1.29 14.19 4.31 26.14 14 36.37 8.85 9.38 19.61 13.66 32.63 12.33a71.373 71.373 0 0 0 30.38-10.53l5.24-3.23c3.39-2.1 6.78-4.2 10.19-6.27 26.36-15.74 54-29 82-41.57l1.88-.85c8.66-3.91 17.33-7.82 26-11.87a32.091 32.091 0 0 0 11.411-8.41c3.519-4.33 3.449-9.44-.521-13.35a26.964 26.964 0 0 0-6.95-5c-9.82-4.79-19.72-9.44-29.64-14.08l-6-2.82c-1.66-.79-3.35-1.51-5.12-2.27l-2.67-1.14c18-16 32.44-34.21 41.35-56.74l.37.87c.787 2.14 1.567 4.283 2.34 6.43 1.16 3.32 2.34 6.6 3.54 9.9 12.29 33.6 26 66.64 42.45 98.51 17.38 33.7 37.12 65.94 61.471 95.24a310.439 310.439 0 0 0 47.099 46.1c10.6 8.29 22.19 15 34.18 21.09a7.455 7.455 0 0 0 2 .53c.42.07.92.17 1.46.29l-1.32-1.59Zm-344.74-291.38a7484.863 7484.863 0 0 1-46.64 20.29l.46-.63c.152-.243.327-.47.52-.68l20.22-20.94a10746.803 10746.803 0 0 1 52.86-54.56c8.92-9.12 18.29-17.92 27.89-26.32 11.52-10.08 23.26-19.87 35-29.68l9.22-7.69a56.115 56.115 0 0 1 5.16-3.74c.867-.58 1.727-1.167 2.58-1.76 7 18 12.46 36.33 18 54.77a2812.528 2812.528 0 0 0 5.16 17.14c-44.31 16.02-87.29 34.87-130.43 53.8Zm146.42 3.48c-5.38 15.56-14.75 28.59-26.18 40.33a170.865 170.865 0 0 1-23.65 19.93 3.006 3.006 0 0 1-3.13.41l-5.27-1.94c-5.49-2-11-4.06-16.53-5.79-11-3.45-21.51-2-31.47 3.74-5.9 3.39-11.58 7-16 12.28-9.47 11.1-5.35 24.09 1.86 31.71 4.42 4.66 10.43 5.82 16.7 5.64 6-.17 11.48-2.12 16.74-4.79a232.123 232.123 0 0 0 42.58-27.65 2.574 2.574 0 0 1 3.34-.42l10.51 5.25c4.55 2.25 9.11 4.52 13.6 6.82a30.552 30.552 0 0 1 6.76 4.65c3.59 3.32 3.58 7.32-.31 10.27a66.885 66.885 0 0 1-11.94 7.35c-6.23 2.89-12.53 5.64-18.86 8.41a994.251 994.251 0 0 0-14.27 6.29c-26 11.8-50.93 25.71-75.85 39.63l-1.7 1c-5.57 3.1-11.34 5.53-17.79 6-17.88 1.35-28.11-12-29.79-24.59-.77-5.81.48-11.35 1.73-16.88l.33-1.47c4.68-21 10.78-41.64 20.22-61.11 5.12-10.53 10.69-20.88 16.39-31.15 8.17-14.65 20.53-25.16 35.06-33.35 12.94-7.28 26.54-13.16 40.28-18.82l7.41-3.13c2.89-1.25 5.79-2.49 8.72-3.69l3-1.14c7.24-2.73 25.46-9.62 33.94-13.25.48-.18 1.001-.37 1.471-.53.29-.09.63-.18 1-.31l3.94 13 3.909 12.85c.37 1.23.77 2.47 1.16 3.69.74 2.4 1.51 4.79 2.16 7.19a6.404 6.404 0 0 1-.07 3.57Zm-59.5 67-4 2.36c-2.82 1.66-5.62 3.32-8.48 4.9-6.32 3.5-12.68 6.953-19.08 10.36-5.55 2.93-11.34 5.24-17.79 5.22-7.93 0-11-3.76-8.33-11.89.85-2.62 3-5 5.11-7a75.01 75.01 0 0 1 8.15-6.23l1.12-.77a23.71 23.71 0 0 1 16.8-4.22c9.16 1 17.81 3.76 26.41 6.71l.09.56ZM625.27 400.08a9.86 9.86 0 0 1-2.93-1c-2.3-1.18-2.761-3.3-.681-4.85a19.978 19.978 0 0 1 6.4-3.08c5.59-1.66 11.32-2.82 16.88-4.52a126 126 0 0 0 14.211-5.24 22.588 22.588 0 0 0 6.409-4.68c2.267-2.267 2.494-4.724.68-7.37a53.55 53.55 0 0 0-6.06-7.19 98.851 98.851 0 0 0-39.339-24.29 97.623 97.623 0 0 1-10.25-4.24c-1.09-.5-1.84-1.79-2.75-2.71 1.22-.44 2.469-1.35 3.649-1.25 4.76.33 9.531.81 14.27 1.55a121.786 121.786 0 0 1 33.44 9.92 78.105 78.105 0 0 1 27.35 21.44 28.593 28.593 0 0 1 4.28 7.67 11.053 11.053 0 0 1-2.4 12.29 46.093 46.093 0 0 1-9.36 7.26c-8.7 5.12-18.4 7.34-28.169 9.11-5.62 1-22.781 1.66-25.641 1.22l.011-.04Z" fill="#fff"/></g><defs><clipPath id="a"><path fill="#fff" d="M0 0h1024v1024H0z"/></clipPath></defs></svg>

<svg width="1024" height="1024" viewBox="0 0 1024 1024" fill="none" xmlns="http://www.w3.org/2000/svg">
<g clip-path="url(#clip0_3_344)">
<path d="M512 1024C794.77 1024 1024 794.77 1024 512C1024 229.23 794.77 0 512 0C229.23 0 0 229.23 0 512C0 794.77 229.23 1024 512 1024Z" fill="#728DBE"/>
<path d="M750.319 786.9C749.546 785.946 748.753 785.006 747.939 784.08C730.936 764.918 715.642 744.306 702.229 722.48C676.789 681.06 655.079 637.74 636.109 593.1C623.649 563.75 611.479 534.3 599.319 504.82C592.24 487.606 585.133 470.42 577.999 453.26L576.099 448.63L577.099 448.41C577.667 448.261 578.246 448.157 578.829 448.1C580.909 447.95 583.009 447.84 585.099 447.73C589.099 447.49 593.099 447.25 597.099 446.85C600.368 446.557 603.589 445.865 606.689 444.79C609.789 443.65 610.249 440.79 608.049 438.32C606.96 437.132 605.727 436.084 604.379 435.2C596.27 429.71 587.239 428.2 577.629 429.2C575.549 429.42 573.499 429.75 571.449 430.07L568.699 430.49L568.639 430.38L568.549 430.23C568.482 430.124 568.421 430.014 568.369 429.9C558.789 406.633 549.233 383.396 539.699 360.19C539.46 359.54 539.276 358.871 539.15 358.19L538.889 357.19L542.319 356.49C544.719 355.99 547 355.49 549.27 355.02C550.47 354.74 551.68 354.49 552.9 354.25C556.233 353.671 559.505 352.777 562.669 351.58C565.909 350.22 569.069 350.11 572.329 349.98H573.069C574.289 349.92 574.859 350.48 575.369 351.68C576.183 353.847 577.334 355.871 578.78 357.68C579.355 358.348 580.066 358.887 580.865 359.261C581.664 359.634 582.533 359.833 583.415 359.846C584.297 359.858 585.172 359.683 585.981 359.332C586.79 358.981 587.516 358.462 588.109 357.81C589.266 356.615 590.147 355.182 590.689 353.61C591.848 350.293 592.268 346.765 591.923 343.269C591.578 339.773 590.474 336.395 588.689 333.37C586.039 328.67 582.239 326.05 576.469 326.81C571.949 327.4 567.469 327.95 562.919 328.51C556.429 329.3 549.919 330.1 543.469 331.04C540.079 331.52 536.739 332.33 533.349 333.16C531.779 333.53 530.199 333.92 528.579 334.27L528.429 333.99L527.559 332.33C516.149 308.74 502.469 286.58 485.349 266.6C481.759 262.38 479.579 258.27 479.879 252.48C480.249 245.09 474.809 238.32 468.079 236.26C463.549 234.88 459.419 235.63 456.249 239.15C451.839 244.05 449.739 250.03 451.369 256.35C453.014 262.731 455.292 268.931 458.169 274.86C468.509 296.32 480.749 316.78 492.969 337.24L493.599 338.24L494.059 339.01L494.979 340.54L494.059 340.83L493.319 341.09L481.409 344.46C472.409 346.99 463.489 349.51 454.589 352.2C446.589 354.63 438.649 357.2 430.699 359.72C423.619 361.986 416.529 364.223 409.429 366.43C399.749 369.38 389.849 370.63 379.749 368.68C378.129 368.36 376.513 368.026 374.899 367.68C371.769 367.03 368.649 366.39 365.499 365.87C364.498 365.8 363.494 365.939 362.549 366.28L361.189 366.61C361.369 367.03 361.519 367.49 361.669 367.96C361.903 368.926 362.343 369.83 362.959 370.61C366.16 374.12 369.584 377.42 373.209 380.49C380.679 386.49 389.379 389.8 399.019 388.84C405.027 388.185 410.935 386.818 416.619 384.77C424.399 382.01 432.089 379.06 439.769 376.09C445.039 374.09 450.329 372.02 455.619 370.09C470.809 364.47 486.199 359.45 502.199 356.56H502.309C505.069 356.04 505.069 356.04 506.699 359.42L506.459 359.62C506.255 359.817 506.038 360 505.809 360.17C486.35 374.798 467.932 390.763 450.689 407.95C416.689 441.596 382.846 475.38 349.159 509.3C333.069 525.52 314.819 538.3 293.379 546.53L289.709 547.91C285.323 549.483 281.016 551.266 276.789 553.26C270.789 556.17 270.949 559.64 276.479 563.26C284.479 568.59 292.939 568.68 301.749 565.62C311.669 562.17 320.549 556.81 329.379 551.26L332.019 549.6C338.469 545.54 344.919 541.49 351.599 537.86C365.089 530.54 379.249 524.64 393.409 518.74C397.229 517.15 401.039 515.57 404.839 513.95C405.036 513.885 405.243 513.862 405.449 513.88H405.969L405.179 515.11L404.659 515.94L400.999 521.51C398.139 525.97 395.289 530.39 392.519 534.87C376.609 560.68 363.399 587.66 356.699 617.38L355.869 620.96C354.354 626.877 353.245 632.891 352.549 638.96C351.259 653.15 356.859 665.1 366.549 675.33C375.399 684.71 386.159 688.99 399.179 687.66C409.975 686.506 420.366 682.905 429.559 677.13L434.799 673.9C438.189 671.8 441.579 669.7 444.989 667.63C471.349 651.89 498.989 638.63 526.989 626.06L528.869 625.21C537.529 621.3 546.199 617.39 554.869 613.34C559.252 611.422 563.151 608.549 566.28 604.93C569.799 600.6 569.729 595.49 565.759 591.58C563.724 589.554 561.377 587.866 558.809 586.58C548.989 581.79 539.089 577.14 529.169 572.5L523.169 569.68C521.509 568.89 519.819 568.17 518.049 567.41L515.379 566.27C533.379 550.27 547.819 532.06 556.729 509.53L557.099 510.4C557.886 512.54 558.666 514.683 559.439 516.83C560.599 520.15 561.779 523.43 562.979 526.73C575.269 560.33 588.979 593.37 605.429 625.24C622.809 658.94 642.549 691.18 666.9 720.48C680.919 737.474 696.708 752.928 713.999 766.58C724.599 774.87 736.189 781.58 748.179 787.67C748.818 787.939 749.491 788.117 750.179 788.2C750.599 788.27 751.099 788.37 751.639 788.49L750.319 786.9ZM405.579 495.52C390.093 502.32 374.546 509.083 358.939 515.81L359.399 515.18C359.551 514.937 359.726 514.71 359.919 514.5L380.139 493.56C397.693 475.313 415.313 457.126 432.999 439C441.919 429.88 451.289 421.08 460.889 412.68C472.409 402.6 484.149 392.81 495.889 383L505.109 375.31C506.757 373.966 508.48 372.718 510.269 371.57C511.136 370.99 511.996 370.403 512.849 369.81C519.849 387.81 525.309 406.14 530.849 424.58C532.543 430.273 534.263 435.986 536.009 441.72C491.699 457.74 448.719 476.59 405.579 495.52ZM551.999 499C546.619 514.56 537.249 527.59 525.819 539.33C518.555 546.674 510.639 553.345 502.169 559.26C501.737 559.612 501.216 559.837 500.663 559.91C500.11 559.982 499.548 559.899 499.039 559.67L493.769 557.73C488.279 555.73 482.769 553.67 477.239 551.94C466.239 548.49 455.729 549.94 445.769 555.68C439.869 559.07 434.189 562.68 429.769 567.96C420.299 579.06 424.419 592.05 431.629 599.67C436.049 604.33 442.059 605.49 448.329 605.31C454.329 605.14 459.809 603.19 465.069 600.52C480.231 592.888 494.51 583.615 507.649 572.87C508.063 572.41 508.628 572.114 509.241 572.037C509.855 571.96 510.475 572.106 510.989 572.45L521.499 577.7C526.049 579.95 530.609 582.22 535.099 584.52C537.551 585.759 539.825 587.323 541.859 589.17C545.449 592.49 545.439 596.49 541.549 599.44C537.838 602.301 533.836 604.765 529.609 606.79C523.379 609.68 517.079 612.43 510.749 615.2C505.976 617.259 501.22 619.356 496.479 621.49C470.479 633.29 445.549 647.2 420.629 661.12L418.929 662.12C413.359 665.22 407.589 667.65 401.139 668.12C383.259 669.47 373.029 656.12 371.349 643.53C370.579 637.72 371.829 632.18 373.079 626.65L373.409 625.18C378.089 604.18 384.189 583.54 393.629 564.07C398.749 553.54 404.319 543.19 410.019 532.92C418.189 518.27 430.549 507.76 445.079 499.57C458.019 492.29 471.619 486.41 485.359 480.75L492.769 477.62C495.659 476.37 498.559 475.13 501.489 473.93L504.489 472.79C511.729 470.06 529.949 463.17 538.429 459.54C538.909 459.36 539.43 459.17 539.9 459.01C540.19 458.92 540.53 458.83 540.9 458.7L544.84 471.7L548.749 484.55C549.119 485.78 549.519 487.02 549.909 488.24C550.649 490.64 551.419 493.03 552.069 495.43C552.385 496.602 552.36 497.84 551.999 499ZM492.499 566L488.499 568.36C485.679 570.02 482.879 571.68 480.019 573.26C473.699 576.76 467.339 580.213 460.939 583.62C455.389 586.55 449.599 588.86 443.149 588.84C435.219 588.84 432.149 585.08 434.819 576.95C435.669 574.33 437.819 571.95 439.929 569.95C442.501 567.689 445.224 565.608 448.079 563.72L449.199 562.95C454.067 559.475 460.068 557.967 465.999 558.73C475.159 559.73 483.809 562.49 492.409 565.44L492.499 566ZM625.27 400.08C624.246 399.903 623.257 399.565 622.34 399.08C620.04 397.9 619.579 395.78 621.659 394.23C623.592 392.829 625.759 391.786 628.059 391.15C633.649 389.49 639.379 388.33 644.939 386.63C649.777 385.17 654.522 383.42 659.15 381.39C661.546 380.22 663.716 378.636 665.559 376.71C667.826 374.443 668.053 371.986 666.239 369.34C664.434 366.77 662.406 364.365 660.179 362.15C649.17 351.057 635.688 342.733 620.84 337.86C617.345 336.642 613.923 335.226 610.59 333.62C609.5 333.12 608.75 331.83 607.84 330.91C609.06 330.47 610.309 329.56 611.489 329.66C616.249 329.99 621.02 330.47 625.759 331.21C637.324 332.895 648.586 336.236 659.199 341.13C669.81 346.132 679.158 353.46 686.549 362.57C688.362 364.891 689.806 367.478 690.829 370.24C691.718 372.291 691.965 374.563 691.536 376.757C691.108 378.951 690.025 380.964 688.429 382.53C685.635 385.342 682.489 387.782 679.069 389.79C670.369 394.91 660.669 397.13 650.9 398.9C645.28 399.9 628.119 400.56 625.259 400.12L625.27 400.08Z" fill="white"/>
</g>
<defs>
<clipPath id="clip0_3_344">
<rect width="1024" height="1024" fill="white"/>
</clipPath>
</defs>
</svg>
